X:1
T:The Gael
T:The last of Mohicans
M:6/8
L:1/8
R:march
K:DMix
B>BB g>fe | f>ed e>cA | B>BB g>fe | f>ed e>cA | d>^cd f>ef | a>ff f>ef | d>^cd f>ef | a>ff f>ef |
g>fg g>fg | a>gg g>fe | f>ef f>ef | a>ff f>ed | e>de e>de | g>fe B>ee | e>de e>de | g>fe f>ed | e6 :|

